X:1
T:Ej 60 más ejemplos
T:
I:linebreak !
L:1/4
K:Dmaj
V:1 clef=treble
D4 | G4 | F4 |B4 |A4|!F4 |G4 | F4 | E4 | D4|
V:2 clef=bass
DCB,A, | G,B,A,G, | A,G,A,F, | E,F,G,E, | F,A,,B,,C, |! D,A,B,A, | G,F,E,G, | A,B,C D | CDB,C | D4 |